images/50430351.svg

<?xml version="1.0" encoding="UTF-8"?>
<svg xmlns="http://www.w3.org/2000/svg" xmlns:xlink="http://www.w3.org/1999/xlink" width="300pt" height="300pt" viewBox="0 0 300 300" version="1.1">
<defs>
<g>
<symbol overflow="visible" id="glyph0-0">
<path style="stroke:none;" d="M 0.453125 1.59375 L 0.453125 -6.34375 L 4.953125 -6.34375 L 4.953125 1.59375 Z M 0.953125 1.09375 L 4.453125 1.09375 L 4.453125 -5.84375 L 0.953125 -5.84375 Z M 0.953125 1.09375 "/>
</symbol>
<symbol overflow="visible" id="glyph0-1">
<path style="stroke:none;" d="M 4.8125 -6.34375 L 4.8125 -5.484375 C 4.476562 -5.640625 4.160156 -5.753906 3.859375 -5.828125 C 3.566406 -5.910156 3.28125 -5.953125 3 -5.953125 C 2.507812 -5.953125 2.132812 -5.859375 1.875 -5.671875 C 1.613281 -5.484375 1.484375 -5.21875 1.484375 -4.875 C 1.484375 -4.582031 1.570312 -4.363281 1.75 -4.21875 C 1.925781 -4.070312 2.253906 -3.953125 2.734375 -3.859375 L 3.28125 -3.75 C 3.9375 -3.625 4.421875 -3.398438 4.734375 -3.078125 C 5.054688 -2.765625 5.21875 -2.34375 5.21875 -1.8125 C 5.21875 -1.175781 5.003906 -0.691406 4.578125 -0.359375 C 4.148438 -0.0351562 3.523438 0.125 2.703125 0.125 C 2.390625 0.125 2.054688 0.0859375 1.703125 0.015625 C 1.359375 -0.046875 1 -0.148438 0.625 -0.296875 L 0.625 -1.203125 C 0.976562 -1.003906 1.328125 -0.851562 1.671875 -0.75 C 2.023438 -0.644531 2.367188 -0.59375 2.703125 -0.59375 C 3.203125 -0.59375 3.585938 -0.691406 3.859375 -0.890625 C 4.140625 -1.085938 4.28125 -1.375 4.28125 -1.75 C 4.28125 -2.070312 4.179688 -2.320312 3.984375 -2.5 C 3.785156 -2.675781 3.460938 -2.8125 3.015625 -2.90625 L 2.46875 -3.015625 C 1.8125 -3.148438 1.332031 -3.359375 1.03125 -3.640625 C 0.738281 -3.921875 0.59375 -4.3125 0.59375 -4.8125 C 0.59375 -5.382812 0.796875 -5.835938 1.203125 -6.171875 C 1.609375 -6.515625 2.171875 -6.6875 2.890625 -6.6875 C 3.203125 -6.6875 3.515625 -6.65625 3.828125 -6.59375 C 4.148438 -6.539062 4.476562 -6.457031 4.8125 -6.34375 Z M 4.8125 -6.34375 "/>
</symbol>
<symbol overflow="visible" id="glyph0-2">
<path style="stroke:none;" d="M 0.890625 -6.5625 L 1.765625 -6.5625 L 1.765625 -3.875 L 5 -3.875 L 5 -6.5625 L 5.890625 -6.5625 L 5.890625 0 L 5 0 L 5 -3.125 L 1.765625 -3.125 L 1.765625 0 L 0.890625 0 Z M 0.890625 -6.5625 "/>
</symbol>
<symbol overflow="visible" id="glyph0-3">
<path style="stroke:none;" d="M 3.546875 -5.953125 C 2.898438 -5.953125 2.382812 -5.710938 2 -5.234375 C 1.625 -4.753906 1.4375 -4.101562 1.4375 -3.28125 C 1.4375 -2.445312 1.625 -1.789062 2 -1.3125 C 2.382812 -0.832031 2.898438 -0.59375 3.546875 -0.59375 C 4.191406 -0.59375 4.703125 -0.832031 5.078125 -1.3125 C 5.453125 -1.789062 5.640625 -2.445312 5.640625 -3.28125 C 5.640625 -4.101562 5.453125 -4.753906 5.078125 -5.234375 C 4.703125 -5.710938 4.191406 -5.953125 3.546875 -5.953125 Z M 3.546875 -6.6875 C 4.460938 -6.6875 5.195312 -6.375 5.75 -5.75 C 6.300781 -5.132812 6.578125 -4.3125 6.578125 -3.28125 C 6.578125 -2.238281 6.300781 -1.410156 5.75 -0.796875 C 5.195312 -0.179688 4.460938 0.125 3.546875 0.125 C 2.617188 0.125 1.878906 -0.179688 1.328125 -0.796875 C 0.773438 -1.410156 0.5 -2.238281 0.5 -3.28125 C 0.5 -4.3125 0.773438 -5.132812 1.328125 -5.75 C 1.878906 -6.375 2.617188 -6.6875 3.546875 -6.6875 Z M 3.546875 -6.6875 "/>
</symbol>
<symbol overflow="visible" id="glyph0-4">
<path style="stroke:none;" d="M 0.890625 -6.5625 L 2.078125 -6.5625 L 4.984375 -1.078125 L 4.984375 -6.5625 L 5.84375 -6.5625 L 5.84375 0 L 4.65625 0 L 1.75 -5.484375 L 1.75 0 L 0.890625 0 Z M 0.890625 -6.5625 "/>
</symbol>
<symbol overflow="visible" id="glyph0-5">
<path style="stroke:none;" d="M 0.890625 -6.5625 L 4.65625 -6.5625 L 4.65625 -5.8125 L 1.765625 -5.8125 L 1.765625 -3.875 L 4.375 -3.875 L 4.375 -3.140625 L 1.765625 -3.140625 L 1.765625 0 L 0.890625 0 Z M 0.890625 -6.5625 "/>
</symbol>
</g>
</defs>
<g id="surface27077">
<rect x="0" y="0" width="300" height="300" style="fill:rgb(100%,100%,100%);fill-opacity:1;stroke:none;"/>
<path style="fill:none;stroke-width:1.2;stroke-linecap:butt;stroke-linejoin:miter;stroke:rgb(80%,80%,0%);stroke-opacity:1;stroke-miterlimit:10;" d="M 109.328125 170.210938 L 101.714844 162.011719 "/>
<path style="fill:none;stroke-width:1.2;stroke-linecap:butt;stroke-linejoin:miter;stroke:rgb(0%,0%,0%);stroke-opacity:1;stroke-miterlimit:10;" d="M 101.714844 162.011719 L 94.101562 153.816406 "/>
<path style="fill:none;stroke-width:1.2;stroke-linecap:butt;stroke-linejoin:miter;stroke:rgb(80%,80%,0%);stroke-opacity:1;stroke-miterlimit:10;" d="M 109.328125 170.210938 L 120.234375 167.71875 "/>
<path style="fill:none;stroke-width:1.2;stroke-linecap:butt;stroke-linejoin:miter;stroke:rgb(0%,0%,0%);stroke-opacity:1;stroke-miterlimit:10;" d="M 120.234375 167.71875 L 131.140625 165.222656 "/>
<path style=" stroke:none;fill-rule:nonzero;fill:rgb(100%,100%,100%);fill-opacity:1;" d="M 106.328125 164.710938 L 112.328125 164.710938 L 112.328125 175.710938 L 106.328125 175.710938 Z M 106.328125 164.710938 "/>
<g style="fill:rgb(80%,80%,0%);fill-opacity:1;">
  <use xlink:href="#glyph0-1" x="106.328125" y="173.374023"/>
</g>
<path style="fill:none;stroke-width:1;stroke-linecap:butt;stroke-linejoin:miter;stroke:rgb(0%,0%,0%);stroke-opacity:1;stroke-miterlimit:10;" d="M 72.289062 158.804688 L 72.289062 158.804688 M 75.285156 158.652344 L 75.050781 157.636719 M 78.28125 158.503906 L 77.816406 156.46875 M 81.277344 158.351562 L 80.578125 155.300781 M 84.273438 158.203125 L 83.34375 154.136719 M 87.269531 158.050781 L 86.109375 152.96875 M 90.265625 157.902344 L 88.871094 151.800781 M 93.261719 157.75 L 91.636719 150.636719 M 94.980469 157.664062 L 93.222656 149.964844 "/>
<path style="fill:none;stroke-width:1.2;stroke-linecap:butt;stroke-linejoin:miter;stroke:rgb(0%,0%,0%);stroke-opacity:1;stroke-miterlimit:10;" d="M 72.289062 158.804688 L 68.996094 169.496094 "/>
<path style="fill:none;stroke-width:1.2;stroke-linecap:butt;stroke-linejoin:miter;stroke:rgb(100%,0%,0%);stroke-opacity:1;stroke-miterlimit:10;" d="M 68.996094 169.496094 L 65.703125 180.1875 "/>
<path style="fill:none;stroke-width:1.2;stroke-linecap:butt;stroke-linejoin:miter;stroke:rgb(0%,0%,0%);stroke-opacity:1;stroke-miterlimit:10;" d="M 72.289062 158.804688 L 57.0625 142.40625 "/>
<path style=" stroke:none;fill-rule:nonzero;fill:rgb(100%,100%,100%);fill-opacity:1;" d="M 50.703125 174.6875 L 65.703125 174.6875 L 65.703125 185.6875 L 50.703125 185.6875 Z M 50.703125 174.6875 "/>
<g style="fill:rgb(100%,0%,0%);fill-opacity:1;">
  <use xlink:href="#glyph0-2" x="50.703125" y="183.350586"/>
  <use xlink:href="#glyph0-3" x="57.717773" y="183.350586"/>
</g>
<path style="fill:none;stroke-width:1.2;stroke-linecap:butt;stroke-linejoin:miter;stroke:rgb(0%,0%,0%);stroke-opacity:1;stroke-miterlimit:10;" d="M 57.0625 142.40625 L 46.15625 144.898438 "/>
<path style="fill:none;stroke-width:1.2;stroke-linecap:butt;stroke-linejoin:miter;stroke:rgb(100%,0%,0%);stroke-opacity:1;stroke-miterlimit:10;" d="M 46.15625 144.898438 L 35.25 147.394531 "/>
<path style=" stroke:none;fill-rule:nonzero;fill:rgb(100%,100%,100%);fill-opacity:1;" d="M 20.25 141.894531 L 35.25 141.894531 L 35.25 152.894531 L 20.25 152.894531 Z M 20.25 141.894531 "/>
<g style="fill:rgb(100%,0%,0%);fill-opacity:1;">
  <use xlink:href="#glyph0-2" x="20.25" y="150.557617"/>
  <use xlink:href="#glyph0-3" x="27.264648" y="150.557617"/>
</g>
<path style="fill:none;stroke-width:1.2;stroke-linecap:butt;stroke-linejoin:miter;stroke:rgb(0%,0%,0%);stroke-opacity:1;stroke-miterlimit:10;" d="M 131.140625 165.222656 L 139.566406 172.582031 "/>
<path style="fill:none;stroke-width:1.2;stroke-linecap:butt;stroke-linejoin:miter;stroke:rgb(0%,0%,100%);stroke-opacity:1;stroke-miterlimit:10;" d="M 139.566406 172.582031 L 147.996094 179.9375 "/>
<path style="fill:none;stroke-width:1.2;stroke-linecap:butt;stroke-linejoin:miter;stroke:rgb(0%,0%,100%);stroke-opacity:1;stroke-miterlimit:10;" d="M 139.925781 144.644531 L 135.53125 154.933594 "/>
<path style="fill:none;stroke-width:1.2;stroke-linecap:butt;stroke-linejoin:miter;stroke:rgb(0%,0%,0%);stroke-opacity:1;stroke-miterlimit:10;" d="M 135.53125 154.933594 L 131.140625 165.222656 "/>
<path style="fill:none;stroke-width:1.2;stroke-linecap:butt;stroke-linejoin:miter;stroke:rgb(0%,0%,100%);stroke-opacity:1;stroke-miterlimit:10;" d="M 143.890625 148.769531 L 140.375 157.003906 "/>
<path style="fill:none;stroke-width:1.2;stroke-linecap:butt;stroke-linejoin:miter;stroke:rgb(0%,0%,0%);stroke-opacity:1;stroke-miterlimit:10;" d="M 140.375 157.003906 L 136.859375 165.234375 "/>
<path style="fill:none;stroke-width:1.2;stroke-linecap:butt;stroke-linejoin:miter;stroke:rgb(0%,0%,100%);stroke-opacity:1;stroke-miterlimit:10;" d="M 147.996094 179.9375 L 157.597656 174.195312 "/>
<path style="fill:none;stroke-width:1.2;stroke-linecap:butt;stroke-linejoin:miter;stroke:rgb(0%,0%,0%);stroke-opacity:1;stroke-miterlimit:10;" d="M 157.597656 174.195312 L 167.199219 168.457031 "/>
<path style=" stroke:none;fill-rule:nonzero;fill:rgb(100%,100%,100%);fill-opacity:1;" d="M 140.996094 174.4375 L 154.996094 174.4375 L 154.996094 185.4375 L 140.996094 185.4375 Z M 140.996094 174.4375 "/>
<g style="fill:rgb(0%,0%,100%);fill-opacity:1;">
  <use xlink:href="#glyph0-4" x="140.996094" y="183.100586"/>
  <use xlink:href="#glyph0-2" x="147.973633" y="183.100586"/>
</g>
<path style="fill:none;stroke-width:1.2;stroke-linecap:butt;stroke-linejoin:miter;stroke:rgb(0%,0%,0%);stroke-opacity:1;stroke-miterlimit:10;" d="M 167.199219 168.457031 L 162.210938 146.640625 "/>
<path style="fill:none;stroke-width:1.2;stroke-linecap:butt;stroke-linejoin:miter;stroke:rgb(0%,0%,0%);stroke-opacity:1;stroke-miterlimit:10;" d="M 161.570312 167.449219 L 157.578125 149.996094 "/>
<path style="fill:none;stroke-width:1.2;stroke-linecap:butt;stroke-linejoin:miter;stroke:rgb(0%,0%,0%);stroke-opacity:1;stroke-miterlimit:10;" d="M 167.199219 168.457031 L 187.777344 177.242188 "/>
<path style="fill:none;stroke-width:1.2;stroke-linecap:butt;stroke-linejoin:miter;stroke:rgb(0%,0%,0%);stroke-opacity:1;stroke-miterlimit:10;" d="M 162.210938 146.640625 L 151.070312 145.644531 "/>
<path style="fill:none;stroke-width:1.2;stroke-linecap:butt;stroke-linejoin:miter;stroke:rgb(0%,0%,100%);stroke-opacity:1;stroke-miterlimit:10;" d="M 151.070312 145.644531 L 139.925781 144.644531 "/>
<path style="fill:none;stroke-width:1.2;stroke-linecap:butt;stroke-linejoin:miter;stroke:rgb(0%,0%,0%);stroke-opacity:1;stroke-miterlimit:10;" d="M 162.210938 146.640625 L 176.925781 129.785156 "/>
<path style=" stroke:none;fill-rule:nonzero;fill:rgb(100%,100%,100%);fill-opacity:1;" d="M 136.925781 139.144531 L 143.925781 139.144531 L 143.925781 150.144531 L 136.925781 150.144531 Z M 136.925781 139.144531 "/>
<g style="fill:rgb(0%,0%,100%);fill-opacity:1;">
  <use xlink:href="#glyph0-4" x="136.925781" y="147.807617"/>
</g>
<path style="fill:none;stroke-width:1.2;stroke-linecap:butt;stroke-linejoin:miter;stroke:rgb(0%,0%,0%);stroke-opacity:1;stroke-miterlimit:10;" d="M 176.925781 129.785156 L 198.882812 134.101562 "/>
<path style="fill:none;stroke-width:1.2;stroke-linecap:butt;stroke-linejoin:miter;stroke:rgb(0%,0%,0%);stroke-opacity:1;stroke-miterlimit:10;" d="M 180.136719 125.050781 L 197.703125 128.503906 "/>
<path style="fill:none;stroke-width:1.2;stroke-linecap:butt;stroke-linejoin:miter;stroke:rgb(0%,0%,0%);stroke-opacity:1;stroke-miterlimit:10;" d="M 169.6875 108.613281 L 176.925781 129.785156 "/>
<path style="fill:none;stroke-width:1.2;stroke-linecap:butt;stroke-linejoin:miter;stroke:rgb(0%,0%,0%);stroke-opacity:1;stroke-miterlimit:10;" d="M 198.882812 134.101562 L 213.597656 117.246094 "/>
<path style="fill:none;stroke-width:1.2;stroke-linecap:butt;stroke-linejoin:miter;stroke:rgb(0%,0%,0%);stroke-opacity:1;stroke-miterlimit:10;" d="M 213.597656 117.246094 L 209.976562 106.660156 "/>
<path style="fill:none;stroke-width:1.2;stroke-linecap:butt;stroke-linejoin:miter;stroke:rgb(0%,0%,100%);stroke-opacity:1;stroke-miterlimit:10;" d="M 209.976562 106.660156 L 206.359375 96.074219 "/>
<path style="fill:none;stroke-width:1.2;stroke-linecap:butt;stroke-linejoin:miter;stroke:rgb(0%,0%,0%);stroke-opacity:1;stroke-miterlimit:10;" d="M 207.894531 116.832031 L 204.996094 108.363281 "/>
<path style="fill:none;stroke-width:1.2;stroke-linecap:butt;stroke-linejoin:miter;stroke:rgb(0%,0%,100%);stroke-opacity:1;stroke-miterlimit:10;" d="M 204.996094 108.363281 L 202.101562 99.894531 "/>
<path style="fill:none;stroke-width:1.2;stroke-linecap:butt;stroke-linejoin:miter;stroke:rgb(0%,0%,0%);stroke-opacity:1;stroke-miterlimit:10;" d="M 213.597656 117.246094 L 224.578125 119.402344 "/>
<path style="fill:none;stroke-width:1.2;stroke-linecap:butt;stroke-linejoin:miter;stroke:rgb(0%,0%,100%);stroke-opacity:1;stroke-miterlimit:10;" d="M 224.578125 119.402344 L 235.554688 121.5625 "/>
<path style="fill:none;stroke-width:1.2;stroke-linecap:butt;stroke-linejoin:miter;stroke:rgb(0%,0%,100%);stroke-opacity:1;stroke-miterlimit:10;" d="M 206.359375 96.074219 L 195.378906 93.914062 "/>
<path style="fill:none;stroke-width:1.2;stroke-linecap:butt;stroke-linejoin:miter;stroke:rgb(0%,0%,0%);stroke-opacity:1;stroke-miterlimit:10;" d="M 195.378906 93.914062 L 184.402344 91.757812 "/>
<path style=" stroke:none;fill-rule:nonzero;fill:rgb(100%,100%,100%);fill-opacity:1;" d="M 203.359375 90.574219 L 210.359375 90.574219 L 210.359375 101.574219 L 203.359375 101.574219 Z M 203.359375 90.574219 "/>
<g style="fill:rgb(0%,0%,100%);fill-opacity:1;">
  <use xlink:href="#glyph0-4" x="203.359375" y="99.237305"/>
</g>
<path style="fill:none;stroke-width:1.2;stroke-linecap:butt;stroke-linejoin:miter;stroke:rgb(0%,0%,0%);stroke-opacity:1;stroke-miterlimit:10;" d="M 184.402344 91.757812 L 169.6875 108.613281 "/>
<path style="fill:none;stroke-width:1.2;stroke-linecap:butt;stroke-linejoin:miter;stroke:rgb(0%,0%,0%);stroke-opacity:1;stroke-miterlimit:10;" d="M 186.898438 96.90625 L 175.125 110.390625 "/>
<path style="fill:none;stroke-width:1.2;stroke-linecap:butt;stroke-linejoin:miter;stroke:rgb(0%,0%,100%);stroke-opacity:1;stroke-miterlimit:10;" d="M 235.554688 121.5625 L 239.175781 132.148438 "/>
<path style="fill:none;stroke-width:1.2;stroke-linecap:butt;stroke-linejoin:miter;stroke:rgb(0%,0%,0%);stroke-opacity:1;stroke-miterlimit:10;" d="M 239.175781 132.148438 L 242.792969 142.734375 "/>
<path style=" stroke:none;fill-rule:nonzero;fill:rgb(100%,100%,100%);fill-opacity:1;" d="M 228.554688 116.0625 L 242.554688 116.0625 L 242.554688 127.0625 L 228.554688 127.0625 Z M 228.554688 116.0625 "/>
<g style="fill:rgb(0%,0%,100%);fill-opacity:1;">
  <use xlink:href="#glyph0-4" x="228.554688" y="124.725586"/>
  <use xlink:href="#glyph0-2" x="235.532227" y="124.725586"/>
</g>
<path style="fill:none;stroke-width:1.2;stroke-linecap:butt;stroke-linejoin:miter;stroke:rgb(0%,0%,0%);stroke-opacity:1;stroke-miterlimit:10;" d="M 242.792969 142.734375 L 264.75 147.046875 "/>
<path style="fill:none;stroke-width:1.2;stroke-linecap:butt;stroke-linejoin:miter;stroke:rgb(0%,0%,0%);stroke-opacity:1;stroke-miterlimit:10;" d="M 242.792969 142.734375 L 228.078125 159.589844 "/>
<path style="fill:none;stroke-width:1.2;stroke-linecap:butt;stroke-linejoin:miter;stroke:rgb(0%,0%,0%);stroke-opacity:1;stroke-miterlimit:10;" d="M 187.777344 177.242188 L 190.457031 199.457031 "/>
<path style="fill:none;stroke-width:1.2;stroke-linecap:butt;stroke-linejoin:miter;stroke:rgb(0%,0%,0%);stroke-opacity:1;stroke-miterlimit:10;" d="M 193.273438 178.832031 L 195.417969 196.605469 "/>
<path style="fill:none;stroke-width:1.2;stroke-linecap:butt;stroke-linejoin:miter;stroke:rgb(0%,0%,0%);stroke-opacity:1;stroke-miterlimit:10;" d="M 205.675781 163.8125 L 187.777344 177.242188 "/>
<path style="fill:none;stroke-width:1.2;stroke-linecap:butt;stroke-linejoin:miter;stroke:rgb(0%,0%,0%);stroke-opacity:1;stroke-miterlimit:10;" d="M 190.457031 199.457031 L 211.039062 208.242188 "/>
<path style="fill:none;stroke-width:1.2;stroke-linecap:butt;stroke-linejoin:miter;stroke:rgb(0%,0%,0%);stroke-opacity:1;stroke-miterlimit:10;" d="M 211.039062 208.242188 L 228.9375 194.8125 "/>
<path style="fill:none;stroke-width:1.2;stroke-linecap:butt;stroke-linejoin:miter;stroke:rgb(0%,0%,0%);stroke-opacity:1;stroke-miterlimit:10;" d="M 209.667969 202.6875 L 223.984375 191.945312 "/>
<path style="fill:none;stroke-width:1.2;stroke-linecap:butt;stroke-linejoin:miter;stroke:rgb(0%,0%,0%);stroke-opacity:1;stroke-miterlimit:10;" d="M 228.9375 194.8125 L 239.226562 199.207031 "/>
<path style="fill:none;stroke-width:1.2;stroke-linecap:butt;stroke-linejoin:miter;stroke:rgb(20%,80%,80%);stroke-opacity:1;stroke-miterlimit:10;" d="M 239.226562 199.207031 L 249.515625 203.601562 "/>
<path style="fill:none;stroke-width:1.2;stroke-linecap:butt;stroke-linejoin:miter;stroke:rgb(0%,0%,0%);stroke-opacity:1;stroke-miterlimit:10;" d="M 228.9375 194.8125 L 226.253906 172.597656 "/>
<path style=" stroke:none;fill-rule:nonzero;fill:rgb(100%,100%,100%);fill-opacity:1;" d="M 246.515625 198.101562 L 252.515625 198.101562 L 252.515625 209.101562 L 246.515625 209.101562 Z M 246.515625 198.101562 "/>
<g style="fill:rgb(20%,80%,80%);fill-opacity:1;">
  <use xlink:href="#glyph0-5" x="246.515625" y="206.764648"/>
</g>
<path style="fill:none;stroke-width:1.2;stroke-linecap:butt;stroke-linejoin:miter;stroke:rgb(0%,0%,0%);stroke-opacity:1;stroke-miterlimit:10;" d="M 226.253906 172.597656 L 205.675781 163.8125 "/>
<path style="fill:none;stroke-width:1.2;stroke-linecap:butt;stroke-linejoin:miter;stroke:rgb(0%,0%,0%);stroke-opacity:1;stroke-miterlimit:10;" d="M 222.128906 176.5625 L 205.667969 169.535156 "/>
</g>
</svg>

<svg xmlns="http://www.w3.org/2000/svg" xmlns:xlink="http://www.w3.org/1999/xlink" width="300pt" height="300pt" viewBox="0 0 300 300"><defs><symbol overflow="visible"><path d="M.453 1.594v-7.938h4.5v7.938zm.5-.5h3.5v-6.938h-3.5zm0 0"/></symbol><symbol overflow="visible" id="a"><path d="M4.813-6.344v.86c-.336-.157-.653-.27-.954-.344-.294-.082-.58-.125-.86-.125-.492 0-.867.094-1.125.28-.262.19-.39.454-.39.798 0 .293.085.512.265.656.176.15.504.267.984.36l.547.11c.658.125 1.142.352 1.454.672.32.312.485.734.485 1.265 0 .637-.216 1.122-.642 1.454-.43.325-1.055.485-1.875.485-.312 0-.648-.04-1-.11C1.36-.046 1-.147.625-.296v-.906c.352.2.703.35 1.047.453.35.105.695.156 1.03.156.5 0 .884-.097 1.157-.297.28-.196.42-.485.42-.86 0-.32-.1-.57-.296-.75-.2-.176-.523-.313-.968-.406l-.547-.11C1.81-3.148 1.33-3.36 1.03-3.64.74-3.923.595-4.313.595-4.813c0-.57.203-1.024.61-1.36.405-.344.968-.516 1.687-.516.313 0 .626.032.938.094.32.055.65.137.985.25zm0 0"/></symbol><symbol overflow="visible" id="b"><path d="M.89-6.563h.876v2.688H5v-2.688h.89V0H5v-3.125H1.766V0H.89zm0 0"/></symbol><symbol overflow="visible" id="c"><path d="M3.547-5.953c-.65 0-1.164.242-1.547.72-.375.48-.563 1.13-.563 1.952 0 .835.188 1.49.563 1.967.383.48.898.72 1.547.72.644 0 1.156-.24 1.53-.72.376-.476.564-1.132.564-1.968 0-.822-.187-1.474-.562-1.954-.375-.477-.887-.72-1.53-.72zm0-.734c.914 0 1.648.312 2.203.937.55.617.828 1.438.828 2.47 0 1.042-.277 1.87-.828 2.483-.555.617-1.29.922-2.203.922-.93 0-1.668-.305-2.22-.922C.774-1.41.5-2.237.5-3.28c0-1.033.273-1.853.828-2.47.55-.625 1.29-.938 2.22-.938zm0 0"/></symbol><symbol overflow="visible" id="d"><path d="M.89-6.563H2.08l2.906 5.485v-5.484h.86V0H4.656L1.75-5.484V0H.89zm0 0"/></symbol><symbol overflow="visible" id="e"><path d="M.89-6.563h3.766v.75h-2.89v1.938h2.61v.734h-2.61V0H.89zm0 0"/></symbol></defs><g><path fill="#fff" d="M0 0h300v300H0z"/><path d="M109.328 170.21l-7.613-8.198" stroke-width="1.2" stroke="#cc0" stroke-miterlimit="10" fill="none"/><path d="M101.715 162.012l-7.613-8.196" stroke-width="1.2" stroke="#000" stroke-miterlimit="10" fill="none"/><path d="M109.328 170.21l10.906-2.49" stroke-width="1.2" stroke="#cc0" stroke-miterlimit="10" fill="none"/><path d="M120.234 167.72l10.907-2.497" stroke-width="1.2" stroke="#000" stroke-miterlimit="10" fill="none"/><path d="M106.328 164.71h6v11h-6zm0 0" fill="#fff"/><use xlink:href="#a" x="106.328" y="173.374" fill="#cc0"/><path d="M72.29 158.805m2.995-.153l-.234-1.015m3.23.867l-.464-2.035m3.46 1.882l-.698-3.05m3.695 2.9l-.93-4.065m3.927 3.914l-1.16-5.08m4.156 4.932l-1.395-6.1m4.392 5.948l-1.625-7.113m3.343 7.027l-1.757-7.7" stroke="#000" stroke-miterlimit="10" fill="none"/><path d="M72.29 158.805l-3.294 10.69" stroke-width="1.2" stroke="#000" stroke-miterlimit="10" fill="none"/><path d="M68.996 169.496l-3.293 10.69" stroke-width="1.2" stroke="#f00" stroke-miterlimit="10" fill="none"/><path d="M72.29 158.805l-15.228-16.4" stroke-width="1.2" stroke="#000" stroke-miterlimit="10" fill="none"/><path d="M50.703 174.688h15v11h-15zm0 0" fill="#fff"/><g fill="#f00"><use xlink:href="#b" x="50.703" y="183.351"/><use xlink:href="#c" x="57.718" y="183.351"/></g><path d="M57.063 142.406l-10.907 2.492" stroke-width="1.2" stroke="#000" stroke-miterlimit="10" fill="none"/><path d="M46.156 144.898l-10.906 2.497" stroke-width="1.2" stroke="#f00" stroke-miterlimit="10" fill="none"/><path d="M20.25 141.895h15v11h-15zm0 0" fill="#fff"/><g fill="#f00"><use xlink:href="#b" x="20.25" y="150.558"/><use xlink:href="#c" x="27.265" y="150.558"/></g><path d="M131.14 165.223l8.426 7.36" stroke-width="1.2" stroke="#000" stroke-miterlimit="10" fill="none"/><path d="M139.566 172.582l8.43 7.356M139.926 144.645l-4.395 10.29" stroke-width="1.2" stroke="#00f" stroke-miterlimit="10" fill="none"/><path d="M135.53 154.934l-4.39 10.29" stroke-width="1.2" stroke="#000" stroke-miterlimit="10" fill="none"/><path d="M143.89 148.77l-3.515 8.234" stroke-width="1.2" stroke="#00f" stroke-miterlimit="10" fill="none"/><path d="M140.375 157.004l-3.516 8.23" stroke-width="1.2" stroke="#000" stroke-miterlimit="10" fill="none"/><path d="M147.996 179.938l9.602-5.743" stroke-width="1.2" stroke="#00f" stroke-miterlimit="10" fill="none"/><path d="M157.598 174.195l9.6-5.738" stroke-width="1.2" stroke="#000" stroke-miterlimit="10" fill="none"/><path d="M140.996 174.438h14v11h-14zm0 0" fill="#fff"/><g fill="#00f"><use xlink:href="#d" x="140.996" y="183.101"/><use xlink:href="#b" x="147.974" y="183.101"/></g><path d="M167.2 168.457l-4.99-21.816M161.57 167.45l-3.992-17.454M167.2 168.457l20.577 8.785M162.21 146.64l-11.14-.995" stroke-width="1.2" stroke="#000" stroke-miterlimit="10" fill="none"/><path d="M151.07 145.645l-11.144-1" stroke-width="1.2" stroke="#00f" stroke-miterlimit="10" fill="none"/><path d="M162.21 146.64l14.716-16.855" stroke-width="1.2" stroke="#000" stroke-miterlimit="10" fill="none"/><path d="M136.926 139.145h7v11h-7zm0 0" fill="#fff"/><use xlink:href="#d" x="136.926" y="147.808" fill="#00f"/><path d="M176.926 129.785l21.957 4.317M180.137 125.05l17.566 3.454M169.688 108.613l7.238 21.172M198.883 134.102l14.715-16.856M213.598 117.246l-3.62-10.586" stroke-width="1.2" stroke="#000" stroke-miterlimit="10" fill="none"/><path d="M209.977 106.66l-3.618-10.586" stroke-width="1.2" stroke="#00f" stroke-miterlimit="10" fill="none"/><path d="M207.895 116.832l-2.9-8.47" stroke-width="1.2" stroke="#000" stroke-miterlimit="10" fill="none"/><path d="M204.996 108.363l-2.894-8.468" stroke-width="1.2" stroke="#00f" stroke-miterlimit="10" fill="none"/><path d="M213.598 117.246l10.98 2.156" stroke-width="1.2" stroke="#000" stroke-miterlimit="10" fill="none"/><path d="M224.578 119.402l10.977 2.16M206.36 96.074l-10.98-2.16" stroke-width="1.2" stroke="#00f" stroke-miterlimit="10" fill="none"/><path d="M195.38 93.914L184.4 91.758" stroke-width="1.2" stroke="#000" stroke-miterlimit="10" fill="none"/><path d="M203.36 90.574h7v11h-7zm0 0" fill="#fff"/><use xlink:href="#d" x="203.359" y="99.237" fill="#00f"/><path d="M184.402 91.758l-14.714 16.855M186.898 96.906l-11.773 13.485" stroke-width="1.2" stroke="#000" stroke-miterlimit="10" fill="none"/><path d="M235.555 121.563l3.62 10.585" stroke-width="1.2" stroke="#00f" stroke-miterlimit="10" fill="none"/><path d="M239.176 132.148l3.617 10.586" stroke-width="1.2" stroke="#000" stroke-miterlimit="10" fill="none"/><path d="M228.555 116.063h14v11h-14zm0 0" fill="#fff"/><g fill="#00f"><use xlink:href="#d" x="228.555" y="124.726"/><use xlink:href="#b" x="235.532" y="124.726"/></g><path d="M242.793 142.734l21.957 4.313M242.793 142.734l-14.715 16.856M187.777 177.242l2.68 22.215M193.273 178.832l2.145 17.773M205.676 163.813l-17.9 13.43M190.457 199.457l20.582 8.785M211.04 208.242l17.898-13.43M209.668 202.688l14.316-10.743M228.938 194.813l10.29 4.394" stroke-width="1.2" stroke="#000" stroke-miterlimit="10" fill="none"/><path d="M239.227 199.207l10.29 4.395" stroke-width="1.2" stroke="#3cc" stroke-miterlimit="10" fill="none"/><path d="M228.938 194.813l-2.684-22.215" stroke-width="1.2" stroke="#000" stroke-miterlimit="10" fill="none"/><path d="M246.516 198.102h6v11h-6zm0 0" fill="#fff"/><use xlink:href="#e" x="246.516" y="206.765" fill="#3cc"/><path d="M226.254 172.598l-20.578-8.786M222.13 176.563l-16.462-7.028" stroke-width="1.2" stroke="#000" stroke-miterlimit="10" fill="none"/></g></svg>
